X:1
T:Title
%%score { 1 | 2 }
L:1/8
M:4/4
K:Ab
V:1 treble nm="Grand Piano"
V:2 bass 
V:1
 z4 z2[Q:1/4=100] [CA]>[DB] | [Ec]2 [Ec]>[Ec] [Fd]2 [Fd]2 | [Ec]4 [CA]2 [CA]2 | B2 B>B A2 B2 | %4
[M:3/4] c6 |[M:1/4] [CA]>[DB] |[M:4/4] [Ec]2 [Ec]>[Ec] [Fd]>[Fd] [Fd]>[Fd] | %7
 [Ec]4 [CA]2 [A,EA]>[EA] | [DFB]2 [DFB]>[DFB] [CEA]2 [B,EG]2 |[M:3/4] [CEA]6 |[M:1/4] [CA]>[DB] | %11
[M:4/4] [Ec]2 [Ec]>[Ec] [Fd]2 [Fd]2 | [Ec]4 [CA]2 [CA]2 | B2 B>B A2 B2 |[M:3/4] c6 | %15
[M:1/4] [CA]>[DB] |[M:4/4] [Ec]2 [Ec]>[Ec] [Fd]>[Fd] [Fd]>[Fd] | [Ec]4 [CA]2 [A,EA]>[EA] | %18
 [DFB]2 [DFB]>[DFB] [CEA]2 [B,EG]2 |[M:3/4] [CEA]6 |[M:1/4] z2 |[M:4/4] [EAc]2 [EAc]2 z4 | %22
 [Fd]2 [Fd]2 F2 G2 | c2 c>c [ce]2 [Ac]2 | [GB]6 [EB]>[E_c] | [Ec]2 [Ec]>[Ec] [Ec][Ec][EB][E_GA] | %26
 [FA]2 [FA]4 F2 | E2 A>B c2 B2 |[M:3/4] [CA]6 |] %29
V:2
 z4 z2 [A,,A,]2 | [A,,A,]2 [A,,A,]2 [A,,A,]2 [A,,A,]2 | [A,,A,]4 [A,,A,]2 [A,,A,]2 | %3
 [E,G,D]2 [E,G,D]>[E,G,D] [F,A,C]2 [E,G,E]2 |[M:3/4] [A,E]6 |[M:1/4] [A,,A,]2 | %6
[M:4/4] [A,,A,]2 [A,,A,]>[A,,A,] [A,,A,]>[A,,A,] [A,,A,]>[A,,A,] | [A,,A,]4 [A,,A,]2 C,>C, | %8
 D,2 D,>D, E,2 E,2 |[M:3/4] A,,6 |[M:1/4] [A,,A,]2 |[M:4/4] [A,,A,]2 [A,,A,]2 [A,,A,]2 [A,,A,]2 | %12
 [A,,A,]4 [A,,A,]2 [A,,A,]2 | [E,G,D]2 [E,G,D]>[E,G,D] [F,A,C]2 [E,G,E]2 |[M:3/4] [A,E]6 | %15
[M:1/4] [A,,A,]2 |[M:4/4] [A,,A,]2 [A,,A,]>[A,,A,] [A,,A,]>[A,,A,] [A,,A,]>[A,,A,] | %17
 [A,,A,]4 [A,,A,]2 C,>C, | D,2 D,>D, E,2 E,2 |[M:3/4] A,,6 |[M:1/4] z2 | %21
[M:4/4][K:treble] A,2 A,2 A2 _G2 | [D,A,]2 [D,A,]2 z4 | [A,EA]2 [A,EA]>[A,EA] [A,E]2 [A,E]2 | %24
 [E,E]6 [E,G,]>[E,G,] | [A,,A,]2 [A,,A,]>[A,,A,] [A,,A,][A,,A,][B,,G,]C, | [D,D]2 [D,D]4 [D,A,D]2 | %27
 [E,A,C]2 [E,A,C]>[E,A,D] [E,A,E]2 [E,G,D]2 |[M:3/4] [A,,A,]6 |] %29

